!!!COA:	Josquin des Prez
!!!CDT:	~1450-1521/08/27
!!!COM2: La Rue, Pierre de
!!!CDT2: ~1452///-1518/11/20/
!!!OPR:	Missa Sub tuum presidium
!!!ONM:	5
!!!OTL:	Agnus Dei
!!!AGN:	Mass; Agnus Dei
!!!SCT:	NJE 4.5
!!!SCA:	New Josquin Edition 4.5
!!!voices:	4
!!!voices-OPR:	4
**kern	**kern	**kern	**kern
*staff4	*staff3	*staff2	*staff1
*Ivox	*Ivox	*Ivox	*Ivox
*I"Bassus	*I"Tenor	*I"Altus	*I"Superius
*I'B	*I'T	*I'A	*I'S
*>[A,B]	*>[A,B]	*>[A,B]	*>[A,B]
*>A	*>A	*>A	*>A
*clefF4	*clefGv2	*clefGv2	*clefG2
*k[]	*k[]	*k[]	*k[]
*M3/1	*M3/1	*M3/1	*M3/1
*met(O)	*met(O)	*met(O)	*met(O)
=1-	=1-	=1-	=1-
0.r	0.r	1.e	1e
.	.	.	2g/
.	.	2c\	2a/
.	.	2d\	2b\
.	.	[2e\	2e/
=2	=2	=2	=2
0.r	0.r	2e\]	2r
.	.	2E/	1e
.	.	2G/	.
.	.	2A/	2c/
.	.	2B\	2d/
.	.	2E/	2e/
=3	=3	=3	=3
0.r	0.r	2.c\	2A/
.	.	.	2e/
.	.	4A/	.
.	.	2B\	2g/
.	.	2c\	2a/
.	.	2d\	2b\
.	.	2e\	2e/
=4	=4	=4	=4
0.r	0.r	4c\	2.cc\
.	.	4A/	.
.	.	2c\	.
.	.	.	4a/
.	.	4B\	2b\
.	.	4A/	.
.	.	1A	2cc\
.	.	.	1dd
.	.	2G/	.
=5	=5	=5	=5
1AA	0.r	2A/	4cc\
.	.	.	4a/
.	.	1e	4cc\
.	.	.	4b\
2C/	.	.	4b\
.	.	.	4a/
2D\	.	4d\	1a
.	.	4c\	.
1E	.	1B	.
.	.	.	2g#i/
=6	=6	=6	=6
0AA	[0.E	2A/	1a
.	.	2.c\	.
.	.	.	2r
.	.	4B\	.
.	.	2A/	1cc
1r	.	1G	.
.	.	.	2b\
=7	=7	=7	=7
2r	0.E]	2r	2g/
1C	.	1e	2a/
.	.	.	2e/
2BB/	.	2d\	2g/
1AA	.	2c\	2a/
.	.	[2e\	[2cc\
=8	=8	=8	=8
0GG	0G	2e\]	2cc\]
.	.	1d	2.b\
.	.	.	4a/
.	.	2B\	4g/
.	.	.	4f/
1r	1A	1c	1e
=9	=9	=9	=9
2.GG/	0B	2r	1d
.	.	2.d\	.
4AA/	.	.	.
2BB/	.	.	2r
.	.	4c\	.
2GG/	.	4B\	2d/
.	.	4A/	.
2C/	1r	[1G	2e/
4BB/	.	.	2d/
4AA/	.	.	.
=10	=10	=10	=10
1GG	0B	1G]	2g/
.	.	.	4f/
.	.	.	4e/
2r	.	2r	1d
2GG/	.	2G/	.
2AA/	2c\	2F/	2r
2GG/	2B\	[2G/	2d/
=11	=11	=11	=11
2C/	2c\	4G/]	2e/
.	.	4A/	.
4BB/	2d\	4B\	2d/
4AA/	.	4c\	.
0GG	1.B	0d	2g/
.	.	.	4f/
.	.	.	4e/
.	.	.	2d/
.	2G/	.	4e/
.	.	.	4f/
=12	=12	=12	=12
2r	0G	1d	4g/
.	.	.	4a/
2.GG/	.	.	4b\
.	.	.	4cc\
.	.	0d	2dd\
4AA/	.	.	.
4BB/	.	.	1b
4C/	.	.	.
1D	1F	.	.
.	.	.	2a/
=13	=13	=13	=13
1GG	0G	2r	0b
.	.	2.d\	.
2r	.	.	.
.	.	4B\	.
2G\	.	2d\	.
2A\	1r	2c\	1r
2F\	.	2A/	.
=14	=14	=14	=14
1G	0.r	2.B\	2r
.	.	.	2.dd\
.	.	4c\	.
2r	.	2d\	.
.	.	.	4b\
2G\	.	2B\	2dd\
2A\	.	2.c\	2cc\
2F\	.	.	2a/
.	.	4d\	.
=15	=15	=15	=15
1G	2.E/	1B	2b\
.	.	.	2.g/
.	4F/	.	.
2r	2G/	1r	.
.	.	.	4e/
2C/	2E/	.	2g/
2D\	2.F/	1r	2f/
2BB/	.	.	2d/
.	4G/	.	.
=16	=16	=16	=16
2C/	2E/	0.r	2e/
4r	2G/	.	4r
4C/	.	.	4e/
2D\	1F	.	2f/
2BB/	.	.	2d/
2.C/	2E/	.	2e/
.	[2A/	.	4e/
4AA/	.	.	[4f/
=17	=17	=17	=17
2AA/	4A/]	1r	4f/]
.	4G/	.	2e/
4r	2F/	.	.
4BB/	.	.	4d/
2C/	1E	1r	2e/
2AA/	.	.	2.e/
2.C/	2r	1e	.
.	.	.	4d/
.	2E/	.	4c/
4D\	.	.	4B/
=18	=18	=18	=18
0.E	2.G/	0e	1B
.	4A/	.	.
.	2B\	.	1r
.	2E/	.	.
.	2r	2B\	1r
.	2B\	2e\	.
=19	=19	=19	=19
0.r	2B\	2d\	1r
.	1d	4G/	.
.	.	4A/	.
.	.	4B\	1r
.	.	4c\	.
.	2B\	2d\	.
.	2c\	2e\	2r
.	4B\	2f\	2a/
.	4A/	.	.
=20	=20	=20	=20
0.r	0G	2.g\	2b\
.	.	.	1dd
.	.	4f\	.
.	.	2d\	.
.	.	1e	2b\
.	1r	.	2cc\
.	.	4d\	4b\
.	.	4c\	4a/
=21	=21	=21	=21
1E	2r	2B\	1g
.	2.c\	2E/	.
2D\	.	2r	1r
.	4B\	.	.
2C/	4B\	2e\	.
.	4A/	.	.
2BB/	2d\	2d\	2r
[2C/	2e\	2c\	[2cc\
=22	=22	=22	=22
4C/]	1c	1e	4cc\]
4D\	.	.	4b\
4E\	.	.	4b\
4F\	.	.	4a/
1G	1B	1d	2b\
.	.	.	2.dd\
1D	2A/	1f	.
.	.	.	4cc\
.	[2d\	.	4b\
.	.	.	4a/
=23	=23	=23	=23
0E	4d\]	0e	4g/
.	4c\	.	4a/
.	4B\	.	4b\
.	4A/	.	4cc\
.	4G/	.	2b\
.	4A/	.	.
.	4B\	.	1a
.	4c\	.	.
2r	1B	2d\	.
2E\	.	2d\	2g/
=24	=24	=24	=24
2.F\	1A	2c\	2a/
.	.	2A/	2.cc\
4E\	.	.	.
4E\	2r	2r	.
4D\	.	.	4b\
1F	2d\	2.f\	4b\
.	.	.	4a/
.	2c\	.	2.cc\
.	.	4e\	.
2F\	2A/	4c\	.
.	.	4d\	4b\
=25	=25	=25	=25
2E\	2B\	2e\	2g/
2D\	4B\	2f\	4dd\
.	4A/	.	4cc\
4G\	4B\	2d\	4b\
4F\	4c\	.	4a/
4E\	2d\	2f\	1a
4D\	.	.	.
1E	1B	2e\	.
.	.	2E/	2g#i/
=26	=26	=26	=26
0.AAl	0.Al	1F	0.al
.	.	0El	.
!!LO:LB:i:g=z
=27||	=27||	=27||	=27||
*>B	*>B	*>B	*>B
*clefF4	*clefGv2	*clefGv2	*clefG2
*k[]	*k[]	*k[]	*k[]
*met(O)	*met(O)	*met(O)	*met(O)
*M2/1	*M2/1	*M2/1	*M2/1
*met(C|)	*met(C|)	*met(C|)	*met(C|)
!!section: Agnus Dei II
!!!OMD: Agnus Dei II
!	!	!	!
1.E	0B	0r	0r
2D\	.	.	.
=28	=28	=28	=28
1E	0B	2e\	0r
.	.	1e	.
1BB	.	.	.
.	.	2d\	.
=29	=29	=29	=29
2E\	0B	1e	2g/
1E	.	.	1g
.	.	1B	.
2D\	.	.	2f/
=30	=30	=30	=30
1E	0B	2r	1g
.	.	2G/	.
2r	.	2.B\	2d/
2E\	.	.	2g/
.	.	4c\	.
=31	=31	=31	=31
2BB/	0r	2d\	2d/
1E	.	1G	2.g/
.	.	.	4a/
4D\	.	4F/	4b\
4C/	.	4E/	4cc\
=32	=32	=32	=32
2BB/	0r	2D/	2dd\
2GG/	.	1G	2b\
1AA	.	.	1cc
.	.	2F#i/	.
=33	=33	=33	=33
2GG/	0B	0G	0b
2BB/	.	.	.
2BB/	.	.	.
2BB/	.	.	.
=34	=34	=34	=34
2BB/	1B	0r	2r
2.D\	.	.	2b\
.	1B	.	2b\
4C/	.	.	.
4BB/	.	.	2b\
4AA/	.	.	.
=35	=35	=35	=35
0GG	1B	0d	2b\
.	.	.	2.dd\
.	1B	.	.
.	.	.	4cc\
.	.	.	4b\
.	.	.	4a/
=36	=36	=36	=36
0r	1c	1e	1g
.	1c	1e	1a
=37	=37	=37	=37
1GG	[0B	1d	[0b
[1BB	.	2d\	.
.	.	[2B\	.
=38	=38	=38	=38
1BB]	0B]	2B\]	0b]
.	.	1e	.
1BB	.	.	.
.	.	2d\	.
=39	=39	=39	=39
1C	0r	1e	2r
.	.	.	2.g/
1BB	.	2r	.
.	.	.	4a/
.	.	2d\	2b\
=40	=40	=40	=40
1C	0r	1e	2e/
.	.	.	2.g/
1BB	.	2r	.
.	.	.	4a/
.	.	2d\	2b\
=41	=41	=41	=41
1AA	0A	1e	0cc
1C	.	1c	.
=42	=42	=42	=42
[0GG	[0B	[0d	2b\
.	.	.	1dd
.	.	.	2b\
=43	=43	=43	=43
0GG]	0B]	0d]	2g/
.	.	.	1b
.	.	.	4a/
.	.	.	4g/
=44	=44	=44	=44
0C	[0c	0e	2a/
.	.	.	1g
.	.	.	[2cc\
=45	=45	=45	=45
1E	0c]	1g	2cc\]
.	.	.	1b
1F	.	1f	.
.	.	.	2a/
=46	=46	=46	=46
1G	0B	1d	0b
1E	.	1e	.
=47	=47	=47	=47
1G	1r	2.d\	0r
.	.	4c\	.
2D\	[1A	4d\	.
.	.	4e\	.
[2A\	.	4f\	.
.	.	4g\	.
=48	=48	=48	=48
4A\]	1A]	2f\	0r
4E\	.	.	.
2G\	.	1e	.
1F	1A	.	.
.	.	2d\	.
=49	=49	=49	=49
[0E	[0B	[0e	1g
.	.	.	1g
=50	=50	=50	=50
0E_	0B]	0e_	2.g/
.	.	.	4f/
.	.	.	4g/
.	.	.	4a/
.	.	.	4b\
.	.	.	4cc\
=51	=51	=51	=51
0E]	1B	0e]	2b\
.	.	.	1a
.	1B	.	.
.	.	.	2g#i/
=52	=52	=52	=52
1r	0A	0r	0a
1AA	.	.	.
=53	=53	=53	=53
2.AA/	2.A/	0r	0r
4BB/	4G/	.	.
4C/	4A/	.	.
4D\	4B\	.	.
[2E\	4c\	.	.
.	4d\	.	.
=54	=54	=54	=54
4E\]	2c\	1r	0r
4BB/	.	.	.
2D\	1B	.	.
1C	.	1e	.
.	2A/	.	.
=55	=55	=55	=55
0BB	[0B	1d	2r
.	.	.	2b\
.	.	1d	2b\
.	.	.	2b\
=56	=56	=56	=56
2r	0B_	0d	1dd
2GG/	.	.	.
2GG/	.	.	2dd\
2GG/	.	.	[2b\
=57	=57	=57	=57
2.BB/	0B]	0d	4b\]
.	.	.	4a/
.	.	.	1g
4C/	.	.	.
1D	.	.	.
.	.	.	2f/
=58	=58	=58	=58
1r	1r	2r	2g/
.	.	2d\	4f/
.	.	.	4e/
2r	1B	2d\	1d
2GG/	.	2G/	.
=59	=59	=59	=59
2GG/	1B	1d	0r
2GG/	.	.	.
2.BB/	1B	1d	.
4C/	.	.	.
=60	=60	=60	=60
0D	[0A	1.f	2r
.	.	.	2d/
.	.	.	2d/
.	.	4e\	2d/
.	.	4d\	.
=61	=61	=61	=61
2r	0A]	2.c\	2.f/
2AA/	.	.	.
.	.	4d\	4g/
2AA/	.	4e\	4a/
.	.	4f\	4b\
2AA/	.	[2e\	[2cc\
=62	=62	=62	=62
2.C/	0r	4e\]	4cc\]
.	.	4d\	4b\
.	.	2c\	1a
4D\	.	.	.
1E	.	1B	.
.	.	.	2g#i/
=63	=63	=63	=63
0AA	1c	0A	2.a/
.	.	.	4g/
.	2c\	.	2e/
.	2c\	.	[2f/
=64	=64	=64	=64
0r	2d\	0r	2f/]
.	2c\	.	2.e/
.	2d\	.	.
.	.	.	4B/
.	[2B\	.	2d/
=65	=65	=65	=65
1r	2B\]	1r	1c
.	2A/	.	.
2r	1B	2r	1B
[2BB/	.	2d\	.
=66	=66	=66	=66
2BB/]	1c	2e\	1r
2AA/	.	2c\	.
1BB	1B	2d\	2r
.	.	2B\	[2b\
=67	=67	=67	=67
1r	1r	1c	2b\]
.	.	.	2a/
2r	2r	1B	2b\
[2E\	2B\	.	2g/
=68	=68	=68	=68
2E\]	2c\	0r	2a/
2D\	2d\	.	2f/
2E\	2B\	.	2g/
2C/	[2c\	.	2e/
=69	=69	=69	=69
2D\	4c\]	0r	2f/
.	4B\	.	.
2BB/	2.B\	.	2d/
2C/	.	.	2e/
.	4G/	.	.
2AA/	2A/	.	4d/
.	.	.	4c/
=70	=70	=70	=70
1E	1B	2r	2B/
.	.	1B	1e
1F	1r	.	.
.	.	2A/	2d/
=71	=71	=71	=71
0E	2r	2.B\	1e
.	2B\	.	.
.	.	4A/	.
.	2B\	2.G/	2r
.	2B\	.	2e/
.	.	4F/	.
=72	=72	=72	=72
2r	0B	1E	2e/
2E\	.	.	4d/
.	.	.	4c/
2E\	.	2.G/	2B/
2E\	.	.	2e/
.	.	4A/	.
=73	=73	=73	=73
1BB	2r	1B	2d/
.	2G/	.	2B/
1r	2A/	1r	2c/
.	2B\	.	2d/
=74	=74	=74	=74
1r	0E	1B	2.G/
.	.	.	4A/
2r	.	1G	4B/
.	.	.	4G/
2E\	.	.	[2c/
=75	=75	=75	=75
2D\	0r	2F/	2c/]
2BB/	.	2.G/	1B
2C/	.	.	.
.	.	4F/	.
2D\	.	2F/	2A/
=76	=76	=76	=76
2GG/	1.B	2.G/	2B/
2.G\	.	.	2.e/
.	.	4E/	.
.	.	1E	.
4F\	.	.	4d/
4E\	2A/	.	4c/
4D\	.	.	4B/
=77	=77	=77	=77
2E\	2G/	0r	2c/
4D\	2F/	.	1B
4BB/	.	.	.
1C	1E	.	.
.	.	.	2A/
=78	=78	=78	=78
[0BB	[0D	2r	0B
.	.	2B\	.
.	.	2B\	.
.	.	2B\	.
=79	=79	=79	=79
0BB]	0D_	0d	2r
.	.	.	2b\
.	.	.	2b\
.	.	.	2b\
=80	=80	=80	=80
2r	0D]	[0d	1.dd
2BB/	.	.	.
2BB/	.	.	.
2BB/	.	.	2cc\
=81	=81	=81	=81
0D	1.F	0d]	1b
.	.	.	1a
.	2E/	.	.
=82	=82	=82	=82
1E	[0E	1B	0g
[1C	.	[1e	.
=83	=83	=83	=83
2C/]	0E]	1e]	0cc
2AA/	.	.	.
[1AA	.	[1e	.
=84	=84	=84	=84
1AA]	[0El	2e\]	1b
.	.	2d\	.
1GG	.	1B	[1b
=85	=85	=85	=85
0AA	0E_	0c	1b]
.	.	.	1a
=86	=86	=86	=86
*^	*	*	*
0EEl\	0El/	0E]	0Bl	0bl
*v	*v	*	*	*
==	==	==	==
*-	*-	*-	*-
!!!RDF**kern: l=long note in original notation
!!!RDF**kern: i=editorial accidental
!!!RDF**kern: V=start of tuplet marker
!!!RDF**kern: Z=end of tuplet marker
!!!ENC:	Will Watson 03/09/2011
!!!END:	2012/01/22/
!!!EED:	Jesse Rodin
!!!EEV:	2012/06/24/
!!attribution-level@Jos: 5 (doubtful)
!!!ONB:	Translated from MusicXML and edited on 2012/06/24/ by Craig Sapp
!!muse2ps: T^@{OPR}^u^@{ONM}{. }@{OTL}^C^La Rue/Josquin?\n@{SCT}^i2I150v85,85,85,150Q16
